X:1
T:Milking time is over
M:2/4
L:1/8
B:Stanford/Petrie (1905, No. 298)
S:"from the collection of J.E. Pigott, Esq., set by (William) Forde."
Z:AK/Fiddler's Companion
K:F
d|cF AG/A/|FD C/D/F/G/|A/B/G/A/ F/D/C/D/|F3 f/d/|
cF AG/A/|F/G/D/F/ C/D/F/G/|A/c/G/A/ F/D/C/D/|F3||
G|F/A/c/d/ _ed/c/|fA BA/G/|cF AG/A/|c>d ff/d/|
cF AG/A/|FD C/D/F/G/|A/c/G/A/ F/D/C/D/|F3||

